X:0648
T:Braes of Mar.
M:C
L:1/8
Q:1/2=96
I: :: ::
N:rest added at the start of the second part
Z:Jack Campin * www.campin.me.uk * 2009
K:D
f|d/d/d df    dede|E/E/E TB>A BE````Be|d/d/d d>e d>efg|aAF`D TE2D:|
z|FA    AB/d/ dAFD|G>B````F>A E/E/E BE|F>A```D>B A>Bcd|fdg>f  e2d:|
<end>
<start>
